packages/core/src/svgs/ankreth.svg

<svg width="24" height="24" viewBox="0 0 24 24" fill="none" xmlns="http://www.w3.org/2000/svg">
<g clip-path="url(#clip0_31_5977)">
<path d="M0 0H24V24H0V0Z" fill="#F0F3FA"/>
<path d="M5.14279 8.85865V14.7644C5.14279 15.2358 5.37422 15.6729 5.75136 15.9086L11.5885 19.5429C11.9742 19.7786 12.4414 19.7701 12.8185 19.5215L18.2742 15.9129C18.4563 15.7872 18.6047 15.6187 18.7063 15.4221C18.808 15.2256 18.8597 15.007 18.8571 14.7858V9.23579C18.8571 8.77293 18.6342 8.34436 18.2742 8.10865L12.7885 4.47865C12.6153 4.3614 12.4128 4.29486 12.2038 4.28654C11.9948 4.27821 11.7876 4.32842 11.6056 4.4315L5.7985 7.68436C5.59521 7.80472 5.42744 7.97679 5.31226 8.18306C5.19708 8.38933 5.1386 8.62244 5.14279 8.85865Z" fill="#FFE81C"/>
<path d="M12 13.7144L9.85718 12.4287L12 15.8573V13.7144Z" fill="#8C800F"/>
<path d="M12 13.7144L14.1429 12.4287L12 15.8573V13.7144Z" fill="#332E06"/>
<path d="M12 10.7144V7.71436L9.85718 12.0001L12 10.7144Z" fill="#8C800F"/>
<path d="M12 10.7144V7.71436L14.1429 12.0001L12 10.7144Z" fill="#332E06"/>
<path d="M12 13.2858V10.7144L14.1429 12.0001L12 13.2858Z" fill="#141302"/>
<path d="M12 13.2858V10.7144L9.85718 12.0001L12 13.2858Z" fill="#383306"/>
</g>
<defs>
<clipPath id="clip0_31_5977">
<rect width="24" height="24" fill="white"/>
</clipPath>
</defs>
</svg>

<svg xmlns="http://www.w3.org/2000/svg" width="24" height="24" fill="none" viewBox="0 0 24 24"><g clip-path="url(#a)"><path fill="#F0F3FA" d="M0 0h24v24H0z"/><path fill="#FFE81C" d="M5.143 8.859v5.905c0 .472.231.909.608 1.145l5.837 3.634c.386.236.853.227 1.23-.021l5.456-3.61a1.35 1.35 0 0 0 .583-1.126v-5.55c0-.463-.223-.892-.583-1.127l-5.485-3.63a1.12 1.12 0 0 0-1.183-.048L5.799 7.685a1.34 1.34 0 0 0-.656 1.175"/><path fill="#8C800F" d="M12 13.714 9.857 12.43 12 15.857z"/><path fill="#332E06" d="m12 13.714 2.143-1.285L12 15.857z"/><path fill="#8C800F" d="M12 10.714v-3L9.857 12z"/><path fill="#332E06" d="M12 10.714v-3L14.143 12z"/><path fill="#141302" d="M12 13.286v-2.572L14.143 12z"/><path fill="#383306" d="M12 13.286v-2.572L9.857 12z"/></g><defs><clipPath id="a"><path fill="#fff" d="M0 0h24v24H0z"/></clipPath></defs></svg>
